public/images/tagline.svg

<svg xmlns="http://www.w3.org/2000/svg" width="474.619" height="18.522" viewBox="0 0 474.619 18.522"><font horiz-adv-x="1000"><font-face font-family="GothamHTF-Black" underline-position="-133" underline-thickness="20"/><glyph unicode="A" horiz-adv-x="795" d="M6 0h204l50 125h270L581 0h208L491 705H304m13-429l79 199 78-199z"/><glyph unicode="B" horiz-adv-x="715" d="M62 0h361c167 0 265 73 265 193v2c0 95-54 143-139 171 62 27 108 75 108 156v2c0 48-17 85-45 113-41 41-103 63-191 63H62m189-279v123h126c58 0 88-22 88-60v-2c0-41-33-61-92-61M251 156v129h148c65 0 95-25 95-63v-2c0-41-34-64-93-64z"/><glyph unicode="D" horiz-adv-x="765" d="M62 0h266c252 0 399 150 399 352v2c0 202-145 346-395 346H62m194-528v356h79c116 0 193-65 193-177v-2c0-113-77-177-193-177z"/><glyph unicode="E" horiz-adv-x="667" d="M62 0h568v165H254v111h336v153H254v106h371v165H62z"/><glyph unicode="F" horiz-adv-x="648" d="M62 0h194v250h331v161H256v119h366v170H62z"/><glyph unicode="G" horiz-adv-x="769" d="M419-14c127 0 230 47 304 108v315H401V267h138v-85c-29-19-65-29-112-29-111 0-190 81-190 194v2c0 107 78 192 179 192 69 0 119-24 169-66l114 137c-74 64-161 102-284 102-217 0-377-160-377-364v-2C38 136 201-14 419-14z"/><glyph unicode="K" horiz-adv-x="730" d="M62 0h194v181l71 79L503 0h233L462 399l265 301H497L256 416v284H62z"/><glyph unicode="O" horiz-adv-x="831" d="M414-14c216 0 378 163 378 364v2c0 201-160 362-376 362S38 551 38 350v-2C38 147 198-14 414-14m2 175c-106 0-179 88-179 189v2c0 101 71 187 177 187 107 0 180-88 180-189v-2c0-101-71-187-178-187z"/><glyph unicode="R" horiz-adv-x="719" d="M62 0h194v212h85L482 0h224L539 244c87 37 144 108 144 215v2c0 69-21 123-62 163-47 48-121 76-228 76H62m194-336v168h127c65 0 105-28 105-83v-2c0-51-38-83-104-83z"/><glyph unicode="S" horiz-adv-x="652" d="M337-12c170 0 283 85 283 228v2c0 131-100 183-261 218-97 22-121 36-121 68v2c0 25 23 45 70 45 62 0 132-24 196-69l97 137c-76 61-169 93-288 93-168 0-271-94-271-224v-2c0-144 115-186 264-220 95-22 118-38 118-67v-2c0-30-28-48-80-48-81 0-158 29-227 84L9 104C95 27 213-12 337-12z"/><glyph unicode="’" horiz-adv-x="284" d="M39 338c125 4 205 55 205 203v159H47V505h76c3-54-33-87-100-94z"/><glyph horiz-adv-x="277"/></font><text transform="translate(0 15.3)" fill="#44484D" font-family="'GothamHTF-Black'" font-size="18" letter-spacing="9">BADGES FOR BADGES’ SAKE</text></svg>

<?xml version="1.0" encoding="utf-8"?>
<!-- Generator: Adobe Illustrator 16.0.0, SVG Export Plug-In . SVG Version: 6.00 Build 0)  -->
<!DOCTYPE svg PUBLIC "-//W3C//DTD SVG 1.1//EN" "http://www.w3.org/Graphics/SVG/1.1/DTD/svg11.dtd">
<svg version="1.1" id="Layer_1" xmlns="http://www.w3.org/2000/svg" xmlns:xlink="http://www.w3.org/1999/xlink" x="0px" y="0px"
	 width="474.619px" height="18.522px" viewBox="0 0 474.619 18.522" enable-background="new 0 0 474.619 18.522"
	 xml:space="preserve">
<font horiz-adv-x="1000">
<!-- HTF Gotham&#xAA; &#xA9; 2003 The Hoefler Type Foundry, Inc. Info: www.typography.com -->
<!-- Copyright: Copyright 2014 Adobe System Incorporated. All rights reserved. -->
<font-face font-family="GothamHTF-Black" units-per-em="1000" underline-position="-133" underline-thickness="20"/>
<missing-glyph horiz-adv-x="500"/>
<glyph unicode="A" horiz-adv-x="795" d="M6,0l204,0l50,125l270,0l51,-125l208,0l-298,705l-187,0M317,276l79,199l78,-199z"/>
<glyph unicode="B" horiz-adv-x="715" d="M62,0l361,0C590,0 688,73 688,193l0,2C688,290 634,338 549,366C611,393 657,441 657,522l0,2C657,572 640,609 612,637C571,678 509,700 421,700l-359,0M251,421l0,123l126,0C435,544 465,522 465,484l0,-2C465,441 432,421 373,421M251,156l0,129l148,0C464,285 494,260 494,222l0,-2C494,179 460,156 401,156z"/>
<glyph unicode="D" horiz-adv-x="765" d="M62,0l266,0C580,0 727,150 727,352l0,2C727,556 582,700 332,700l-270,0M256,172l0,356l79,0C451,528 528,463 528,351l0,-2C528,236 451,172 335,172z"/>
<glyph unicode="E" horiz-adv-x="667" d="M62,0l568,0l0,165l-376,0l0,111l336,0l0,153l-336,0l0,106l371,0l0,165l-563,0z"/>
<glyph unicode="F" horiz-adv-x="648" d="M62,0l194,0l0,250l331,0l0,161l-331,0l0,119l366,0l0,170l-560,0z"/>
<glyph unicode="G" horiz-adv-x="769" d="M419,-14C546,-14 649,33 723,94l0,315l-322,0l0,-142l138,0l0,-85C510,163 474,153 427,153C316,153 237,234 237,347l0,2C237,456 315,541 416,541C485,541 535,517 585,475l114,137C625,676 538,714 415,714C198,714 38,554 38,350l0,-2C38,136 201,-14 419,-14z"/>
<glyph unicode="K" horiz-adv-x="730" d="M62,0l194,0l0,181l71,79l176,-260l233,0l-274,399l265,301l-230,0l-241,-284l0,284l-194,0z"/>
<glyph unicode="O" horiz-adv-x="831" d="M414,-14C630,-14 792,149 792,350l0,2C792,553 632,714 416,714C200,714 38,551 38,350l0,-2C38,147 198,-14 414,-14M416,161C310,161 237,249 237,350l0,2C237,453 308,539 414,539C521,539 594,451 594,350l0,-2C594,247 523,161 416,161z"/>
<glyph unicode="R" horiz-adv-x="719" d="M62,0l194,0l0,212l83,0l2,0l141,-212l224,0l-167,244C626,281 683,352 683,459l0,2C683,530 662,584 621,624C574,672 500,700 393,700l-331,0M256,364l0,168l127,0C448,532 488,504 488,449l0,-2C488,396 450,364 384,364z"/>
<glyph unicode="S" horiz-adv-x="652" d="M337,-12C507,-12 620,73 620,216l0,2C620,349 520,401 359,436C262,458 238,472 238,504l0,2C238,531 261,551 308,551C370,551 440,527 504,482l97,137C525,680 432,712 313,712C145,712 42,618 42,488l0,-2C42,342 157,300 306,266C401,244 424,228 424,199l0,-2C424,167 396,149 344,149C263,149 186,178 117,233l-108,-129C95,27 213,-12 337,-12z"/>
<glyph unicode="&#x2019;" horiz-adv-x="284" d="M39,338C164,342 244,393 244,541l0,159l-197,0l0,-195l76,0C126,451 90,418 23,411z"/>
<glyph unicode=" " horiz-adv-x="277"/>
</font>

	<text transform="matrix(1 0 0 1 0 15.3003)" fill="#44484D" font-family="'GothamHTF-Black'" font-size="18" letter-spacing="9">BADGES FOR BADGES’ SAKE</text>
</svg>
